;TIME:430.92
;Filament used:0.57707m
;Layer height:0.200
; HEADER_BLOCK_START
; generated by Creality_Print V7.0.0.4127 on 2026-06-21 at 07:25:51
; total layer number: 19
; filament_density: 1.24
; filament_diameter: 1.75
; max_z_height: 3.80
; creality_uuid: 4f497ca5-7ea3-4f4f-9c1a-0ca7737cb5e2
; HEADER_BLOCK_END

; MINX = 67.60
; MINY = 92.60
; MINZ = 0.00
; MAXX = 152.40
; MAXY = 127.40
; MAXZ = 3.80

; multicolor_method = 0 
; THUMBNAIL_BLOCK_START

;
; THUMBNAIL_BLOCK_END

; THUMBNAIL_BLOCK_START

;
; THUMBNAIL_BLOCK_END

; external perimeters extrusion width = 0.42mm
; perimeters extrusion width = 0.45mm
; infill extrusion width = 0.45mm
; solid infill extrusion width = 0.42mm
; top infill extrusion width = 0.42mm
; first layer extrusion width = 0.50mm

; EXECUTABLE_BLOCK_START
M73 P0 R7
M201 X5000 Y5000 Z500 E5000
M203 X500 Y500 Z30 E100
M204 P5000 R2500 T5000 ; sets acceleration (P, T) and retract acceleration (R), mm/sec^2
M205 X10.00 Y10.00 Z0.40 E5.00 ; sets the jerk limits, mm/sec
; max_print_temp = 50,190
;TYPE:Custom
M220 S100 ;Reset Feedrate 
M221 S100 ;Reset Flowrate 
 
M140 S0 ;Set final bed temp (cold bed override) 
G28 ;Home 
 
G92 E0 ;Reset Extruder 
G1 Z2.0 F3000 ;Move Z Axis up 
M104 S190 ;Set final nozzle temp 
G1 X-2.1 Y20 Z0.28 F5000.0 ;Move to start position 
M190 S0 ;Wait for bed temp to stabilize (cold bed override) 
M109 S190 ;Wait for nozzle temp to stabilize 
G1 X-2.1 Y145.0 Z0.28 F1500.0 E15 ;Draw the first line 
G1 X-2.4 Y145.0 Z0.28 F5000.0 ;Move to side a little 
M73 P1 R7
G1 X-2.4 Y20 Z0.28 F1500.0 E30 ;Draw the second line 
G92 E0  ;Reset Extruder 
G1 E-1.0000 F1800 ;Retract a bit 
M73 P2 R7
G1 Z2.0 F3000 ;Move Z Axis up 
G1 E0.0000 F1800
G90
G21
M83 ; use relative distances for extrusion
;filament start gcode
G1 E-1.2 F2400
G1 Z.2 F9000
M106 S0
;LAYER_CHANGE
;:0.2
;HEIGHT:0.2
;BEFORE_LAYER_CHANGE
;0.2
G92 E0
;TIME_ELAPSED:44.390327
;_SET_FAN_SPEED_CHANGING_LAYER
M204 P500
M205 X10 Y10
; OBJECT_ID: 254
; printing object slide_holder.stl id:7599824372563968 copy 0
M204 T500
G1 X147.822 Y95.743 Z.4 F9000
G1 Z.2
M73 P2 R6
G1 E1.2 F1800
;TYPE:Inner wall
;WIDTH:0.499999
G1 X147.259 Y95.743 E.02031
G2 X145.668 Y95.743 I-.796 J3.534 E.05792
G1 X119.857 Y95.743 E.93193
G1 X119.857 Y93.457 E.08253
G1 X150.087 Y93.458 E1.09147
M73 P3 R6
G1 X150.692 Y93.502 E.0219
G1 X150.979 Y93.623 E.01126
G1 X151.384 Y94.032 E.02079
G1 X151.498 Y94.306 E.01071
G1 X151.543 Y94.65 E.01255
G1 X151.543 Y103.143 E.30663
G1 X149.257 Y103.143 E.08253
G1 X149.257 Y99.459 E.13301
G2 X149.257 Y97.868 I-3.535 J-.795 E.05791
G1 X149.257 Y96.429 E.05198
G1 X149.201 Y96.156 E.01004
G1 X149.056 Y95.944 E.00927
G1 X148.844 Y95.799 E.00928
G1 X148.571 Y95.743 E.01004
G1 X147.862 Y95.743 E.02563
G1 X148.571 Y96.2 F9000
;TYPE:Outer wall
G1 F1800
G1 X147.259 Y96.2 E.04739
G2 X146.103 Y96.119 I-.859 J3.975 E.04197
G1 X145.719 Y96.2 E.01419
G1 X119.4 Y96.2 E.95027
G1 X119.4 Y93 E.11554
G1 X150.282 Y93.001 E1.11502
G1 X150.813 Y93.057 E.01927
G1 X151.211 Y93.225 E.01561
G1 X151.53 Y93.47 E.01452
G1 X151.784 Y93.801 E.01507
G1 X151.943 Y94.186 E.01506
G1 X152 Y94.621 E.01581
G1 X152 Y103.6 E.32421
G1 X148.8 Y103.6 E.11554
M73 P4 R6
G1 X148.8 Y99.459 E.14951
G2 X148.881 Y98.303 I-3.977 J-.859 E.04197
G1 X148.8 Y97.919 E.01419
G1 X148.8 Y96.429 E.05381
G1 X148.733 Y96.267 E.00631
G1 X148.608 Y96.215 E.00487
G1 E-1.2 F2400
;WIPE_START
G1 F9000
G1 X147.259 Y96.2
G1 X146.697 Y96.119
G1 X146.614 Y96.119
;WIPE_END
G1 X150.535 Y93.619 Z.4
G1 Z.2
G1 E1.2 F1800
;TYPE:Bottom surface
;WIDTH:0.508224
G1 F4800
G1 X150.969 Y94.053 E.02258
G3 X151.2 Y94.673 I-.702 J.615 E.02484
G1 X151.2 Y94.943 E.00992
G1 X150.058 Y93.801 E.05935
G1 X149.4 Y93.801 E.02419
G1 X151.2 Y95.601 E.09355
G1 X151.2 Y96.259 E.02419
G1 X148.742 Y93.801 E.12776
G1 X148.084 Y93.801 E.02419
G1 X151.2 Y96.917 E.16197
G1 X151.2 Y97.575 E.02419
G1 X147.426 Y93.801 E.19617
G1 X146.768 Y93.801 E.02419
G1 X148.367 Y95.4 E.08313
G1 X148.583 Y95.4 E.00793
G1 X148.98 Y95.482 E.0149
G1 X149.3 Y95.7 E.01423
G1 X149.515 Y96.016 E.01403
G3 X149.6 Y96.633 I-1.394 J.506 E.02305
G1 X151.2 Y98.233 E.08318
G1 X151.2 Y98.891 E.02419
G1 X149.6 Y97.291 E.08318
G1 X149.6 Y97.83 E.01983
G1 X149.634 Y97.983 E.00577
G1 X151.2 Y99.549 E.08139
G1 X151.2 Y100.207 E.02419
G1 X149.681 Y98.688 E.07898
G3 X149.619 Y99.284 I-1.922 J.102 E.02212
G1 X151.2 Y100.865 E.08219
G1 X151.2 Y101.523 E.02419
G1 X149.6 Y99.923 E.08318
G1 X149.6 Y100.581 E.02419
G1 X151.2 Y102.181 E.08318
G1 X151.2 Y102.8 E.02275
G1 X151.161 Y102.8 E.00143
G1 X149.6 Y101.239 E.08116
G1 X149.6 Y101.897 E.02419
G1 X150.503 Y102.8 E.04695
G1 X149.845 Y102.8 E.02419
G1 X149.394 Y102.349 E.02344
G1 E-1.2 F2400
;WIPE_START
G1 F9000
G1 X149.845 Y102.8
G1 X150.503 Y102.8
G1 X150.005 Y102.302
;WIPE_END
G1 X148.868 Y98.659 Z.4
G1 X147.915 Y95.606 Z.4
G1 Z.2
G1 E1.2 F1800
G1 F4800
G1 X146.11 Y93.801 E.09383
G1 X145.452 Y93.801 E.02419
G1 X147.017 Y95.366 E.08134
G2 X146.312 Y95.319 I-.515 J2.455 E.02603
G1 X144.794 Y93.801 E.07893
G1 X144.136 Y93.801 E.02419
G1 X145.716 Y95.381 E.08215
G1 X145.63 Y95.4 E.00324
G1 X145.077 Y95.4 E.02032
G1 X143.478 Y93.801 E.08314
G1 X142.82 Y93.801 E.02419
G1 X144.419 Y95.4 E.08314
G1 X143.761 Y95.4 E.02419
G1 X142.162 Y93.801 E.08314
M73 P5 R6
G1 X141.504 Y93.801 E.02419
G1 X143.103 Y95.4 E.08314
G1 X142.445 Y95.4 E.02419
G1 X140.846 Y93.801 E.08314
G1 X140.188 Y93.801 E.02419
G1 X141.787 Y95.4 E.08314
G1 X141.129 Y95.4 E.02419
G1 X139.529 Y93.801 E.08315
G1 X138.871 Y93.801 E.02419
G1 X140.471 Y95.4 E.08315
G1 X139.813 Y95.4 E.02419
G1 X138.213 Y93.801 E.08315
G1 X137.555 Y93.8 E.02419
G1 X139.155 Y95.4 E.08315
G1 X138.497 Y95.4 E.02419
G1 X136.897 Y93.8 E.08315
G1 X136.239 Y93.8 E.02419
G1 X137.839 Y95.4 E.08315
G1 X137.181 Y95.4 E.02419
G1 X135.581 Y93.8 E.08315
G1 X134.923 Y93.8 E.02419
G1 X136.523 Y95.4 E.08315
G1 X135.865 Y95.4 E.02419
G1 X134.265 Y93.8 E.08316
G1 X133.607 Y93.8 E.02419
G1 X135.207 Y95.4 E.08316
G1 X134.549 Y95.4 E.02419
G1 X132.949 Y93.8 E.08316
G1 X132.291 Y93.8 E.02419
G1 X133.891 Y95.4 E.08316
G1 X133.233 Y95.4 E.02419
G1 X131.633 Y93.8 E.08316
G1 X130.975 Y93.8 E.02419
G1 X132.574 Y95.4 E.08316
G1 X131.916 Y95.4 E.02419
G1 X130.317 Y93.8 E.08316
G1 X129.659 Y93.8 E.02419
G1 X131.258 Y95.4 E.08316
G1 X130.6 Y95.4 E.02419
G1 X129 Y93.8 E.08316
G1 X128.342 Y93.8 E.02419
G1 X129.942 Y95.4 E.08317
G1 X129.284 Y95.4 E.02419
G1 X127.684 Y93.8 E.08317
G1 X127.026 Y93.8 E.02419
G1 X128.626 Y95.4 E.08317
G1 X127.968 Y95.4 E.02419
G1 X126.368 Y93.8 E.08317
G1 X125.71 Y93.8 E.02419
G1 X127.31 Y95.4 E.08317
G1 X126.652 Y95.4 E.02419
G1 X125.052 Y93.8 E.08317
G1 X124.394 Y93.8 E.02419
G1 X125.994 Y95.4 E.08317
G1 X125.336 Y95.4 E.02419
G1 X123.736 Y93.8 E.08317
G1 X123.078 Y93.8 E.02419
G1 X124.678 Y95.4 E.08318
G1 X124.02 Y95.4 E.02419
G1 X122.42 Y93.8 E.08318
G1 X121.762 Y93.8 E.02419
G1 X123.362 Y95.4 E.08318
G1 X122.704 Y95.4 E.02419
G1 X121.104 Y93.8 E.08318
M73 P6 R6
G1 X120.446 Y93.8 E.02419
G1 X122.046 Y95.4 E.08318
G1 X121.388 Y95.4 E.02419
G1 X120.2 Y94.212 E.06175
G1 X120.2 Y94.87 E.02419
G1 X120.935 Y95.606 E.03824
G1 E-1.2 F2400
;WIPE_START
G1 F9000
G1 X120.2 Y94.87
G1 X120.2 Y94.212
G1 X120.413 Y94.425
;WIPE_END
G1 X120.114 Y93.686 Z.4
G1 Z.2
G1 E1.2 F1800
;TYPE:Gap infill
;WIDTH:0.135324
G2 X120.17 Y93.973 I.517 J.048 E.00216
G1 E-1.2 F2400
;WIPE_START
G1 F9000
G1 X120.136 Y93.89
G1 X120.114 Y93.686
;WIPE_END
G1 X116.305 Y93.924 Z.4
G1 X70.743 Y96.779 Z.4
G1 Z.2
G1 E1.2 F1800
;TYPE:Inner wall
;WIDTH:0.499999
G1 X70.743 Y97.741 E.03472
G2 X70.743 Y99.332 I3.534 J.796 E.05792
G1 X70.743 Y103.143 E.1376
G1 X68.457 Y103.143 E.08253
G1 X68.457 Y94.914 E.29712
G1 X68.502 Y94.306 E.02202
G3 X69.65 Y93.457 I1.14 J.342 E.05528
G1 X100.143 Y93.457 E1.10097
G1 X100.143 Y95.743 E.08253
G1 X74.459 Y95.743 E.92734
G2 X72.868 Y95.743 I-.796 J3.534 E.05792
G1 X71.429 Y95.743 E.05198
G1 X71.156 Y95.799 E.01004
G1 X70.944 Y95.944 E.00928
G1 X70.799 Y96.156 E.00928
G1 X70.743 Y96.429 E.01004
G1 X70.743 Y96.739 E.01121
G1 X71.267 Y96.267 F9000
;TYPE:Outer wall
G1 F1800
G1 X71.2 Y96.429 E.00632
G1 X71.2 Y97.741 E.04738
G2 X71.119 Y98.897 I3.976 J.859 E.04197
G1 X71.2 Y99.281 E.01419
G1 X71.2 Y103.6 E.15594
G1 X68 Y103.6 E.11554
M73 P7 R6
G1 X68 Y94.733 E.32014
G1 X68.057 Y94.186 E.01986
G1 X68.216 Y93.801 E.01506
G1 X68.47 Y93.47 E.01506
G1 X68.801 Y93.216 E.01506
G1 X69.186 Y93.057 E.01506
G1 X69.621 Y93 E.01581
G1 X100.6 Y93 E1.11854
G1 X100.6 Y96.2 E.11554
G1 X74.459 Y96.2 E.94384
G2 X73.303 Y96.119 I-.859 J3.976 E.04197
G1 X72.919 Y96.2 E.01419
G1 X71.429 Y96.2 E.05381
G1 X71.304 Y96.252 E.00487
G1 E-1.2 F2400
;WIPE_START
G1 F9000
G1 X71.2 Y96.429
G1 X71.2 Y97.741
G1 X71.131 Y98.218
;WIPE_END
G1 X74.917 Y97.734 Z.4
G1 X100.006 Y94.523 Z.4
G1 Z.2
G1 E1.2 F1800
;TYPE:Bottom surface
;WIDTH:0.502143
G1 F4800
G1 X99.283 Y93.8 E.03708
G1 X98.634 Y93.8 E.02356
G1 X99.8 Y94.966 E.05985
G1 X99.8 Y95.4 E.01573
G1 X99.584 Y95.4 E.00783
G1 X97.984 Y93.8 E.0821
G1 X97.335 Y93.8 E.02356
G1 X98.935 Y95.4 E.0821
G1 X98.285 Y95.4 E.02356
G1 X96.685 Y93.8 E.0821
G1 X96.036 Y93.8 E.02356
G1 X97.636 Y95.4 E.0821
G1 X96.987 Y95.4 E.02356
G1 X95.386 Y93.8 E.0821
G1 X94.737 Y93.8 E.02356
G1 X96.337 Y95.4 E.0821
G1 X95.688 Y95.4 E.02356
G1 X94.087 Y93.8 E.0821
G1 X93.438 Y93.8 E.02356
G1 X95.038 Y95.4 E.0821
M73 P8 R6
G1 X94.389 Y95.4 E.02356
G1 X92.789 Y93.8 E.0821
G1 X92.139 Y93.8 E.02356
G1 X93.739 Y95.4 E.0821
G1 X93.09 Y95.4 E.02356
G1 X91.49 Y93.8 E.0821
G1 X90.84 Y93.8 E.02356
G1 X92.441 Y95.4 E.0821
G1 X91.791 Y95.4 E.02356
G1 X90.191 Y93.8 E.0821
G1 X89.541 Y93.8 E.02356
G1 X91.142 Y95.4 E.0821
G1 X90.492 Y95.4 E.02356
G1 X88.892 Y93.8 E.0821
G1 X88.243 Y93.8 E.02356
G1 X89.843 Y95.4 E.0821
G1 X89.193 Y95.4 E.02356
G1 X87.593 Y93.8 E.0821
G1 X86.944 Y93.8 E.02356
G1 X88.544 Y95.4 E.0821
G1 X87.894 Y95.4 E.02356
G1 X86.294 Y93.8 E.0821
G1 X85.645 Y93.8 E.02356
G1 X87.245 Y95.4 E.0821
G1 X86.596 Y95.4 E.02356
G1 X84.995 Y93.8 E.0821
G1 X84.346 Y93.8 E.02356
G1 X85.946 Y95.4 E.0821
G1 X85.297 Y95.4 E.02356
G1 X83.696 Y93.8 E.0821
G1 X83.047 Y93.8 E.02356
G1 X84.647 Y95.4 E.0821
G1 X83.998 Y95.4 E.02356
G1 X82.398 Y93.8 E.0821
G1 X81.748 Y93.8 E.02356
G1 X83.348 Y95.4 E.0821
G1 X82.699 Y95.4 E.02356
G1 X81.099 Y93.8 E.0821
G1 X80.449 Y93.8 E.02356
G1 X82.05 Y95.4 E.0821
G1 X81.4 Y95.4 E.02356
G1 X79.8 Y93.8 E.0821
G1 X79.15 Y93.8 E.02356
G1 X80.751 Y95.4 E.0821
G1 X80.101 Y95.4 E.02356
G1 X78.501 Y93.8 E.0821
G1 X77.851 Y93.8 E.02356
G1 X79.452 Y95.4 E.0821
G1 X78.802 Y95.4 E.02356
G1 X77.202 Y93.8 E.0821
G1 X76.553 Y93.8 E.02356
G1 X78.153 Y95.4 E.0821
G1 X77.503 Y95.4 E.02356
G1 X75.903 Y93.8 E.0821
G1 X75.254 Y93.8 E.02356
G1 X76.854 Y95.4 E.0821
G1 X76.205 Y95.4 E.02356
G1 X74.604 Y93.8 E.0821
G1 X73.955 Y93.8 E.02356
G1 X75.555 Y95.4 E.0821
G1 X74.906 Y95.4 E.02356
G1 X73.305 Y93.8 E.0821
G1 X72.656 Y93.8 E.02356
G1 X74.223 Y95.367 E.0804
G2 X73.526 Y95.319 I-.516 J2.412 E.02544
M73 P9 R6
G1 X72.007 Y93.8 E.07794
G1 X71.357 Y93.8 E.02356
G1 X72.934 Y95.377 E.08091
G1 X72.83 Y95.4 E.00387
G1 X72.308 Y95.4 E.01894
G1 X70.708 Y93.8 E.0821
G1 X70.058 Y93.8 E.02356
G1 X71.658 Y95.4 E.0821
G2 X71.076 Y95.467 I-.127 J1.464 E.02141
G1 X69.439 Y93.83 E.08397
G2 X69.041 Y94.041 I.206 J.872 E.01653
G1 X69.023 Y94.064 E.00105
G1 X70.683 Y95.724 E.08518
G1 X70.482 Y96.02 E.01298
G1 X70.456 Y96.146 E.00467
G1 X68.821 Y94.511 E.08389
G2 X68.8 Y95.139 I2.39 J.395 E.02287
G1 X70.4 Y96.74 E.0821
G1 X70.4 Y97.389 E.02356
G1 X68.8 Y95.789 E.0821
G1 X68.8 Y96.438 E.02356
G1 X70.362 Y98 E.08013
G2 X70.319 Y98.607 I2.274 J.464 E.02213
G1 X68.8 Y97.088 E.07794
G1 X68.8 Y97.737 E.02356
G1 X70.391 Y99.328 E.08162
G1 X70.4 Y99.987 E.0239
G1 X68.8 Y98.386 E.0821
G1 X68.8 Y99.036 E.02356
G1 X70.4 Y100.636 E.0821
G1 X70.4 Y101.286 E.02356
G1 X68.8 Y99.685 E.0821
G1 X68.8 Y100.335 E.02356
G1 X70.4 Y101.935 E.0821
G1 X70.4 Y102.585 E.02356
G1 X68.8 Y100.984 E.0821
G1 X68.8 Y101.634 E.02356
G1 X69.966 Y102.8 E.05984
G1 X69.317 Y102.8 E.02356
G1 X68.594 Y102.077 E.03708
G1 E-1.2 F2400
;WIPE_START
G1 F9000
G1 X69.317 Y102.8
G1 X69.966 Y102.8
G1 X69.734 Y102.568
;WIPE_END
G1 X70.514 Y102.901 Z.4
G1 Z.2
G1 E1.2 F1800
;TYPE:Gap infill
;WIDTH:0.104278
G1 X70.188 Y102.865 E.00159
G1 E-1.2 F2400
;WIPE_START
G1 F9000
G1 X70.514 Y102.901
;WIPE_END
G1 X70.444 Y99.085 Z.4
G1 X70.444 Y99.056 Z.4
G1 Z.2
G1 E1.2 F1800
;WIDTH:0.16331
G1 X70.373 Y98.899 E.00164
G1 X70.432 Y98.809 E.00102
G1 E-1.2 F2400
;WIPE_START
G1 F9000
G1 X70.373 Y98.899
G1 X70.444 Y99.056
;WIPE_END
G1 X70.523 Y96.366 Z.4
G1 Z.2
G1 E1.2 F1800
;WIDTH:0.125331
G1 X70.472 Y96.426 E.00051
G1 X70.511 Y96.526 E.0007
G1 E-1.2 F2400
;WIPE_START
G1 F9000
G1 X70.472 Y96.426
G1 X70.523 Y96.366
;WIPE_END
G1 X70.635 Y100.18 Z.4
G1 X71.345 Y124.24 Z.4
G1 Z.2
G1 E1.2 F1800
;TYPE:Inner wall
;WIDTH:0.499999
G1 X71.429 Y124.257 E.00306
G1 X148.571 Y124.257 E2.78532
G1 X148.844 Y124.201 E.01004
M73 P10 R6
G1 X149.056 Y124.056 E.00928
G1 X149.201 Y123.844 E.00928
G1 X149.257 Y123.571 E.01004
G1 X149.257 Y116.857 E.24243
G1 X151.543 Y116.857 E.08253
G1 X151.543 Y125.086 E.29712
G1 X151.498 Y125.694 E.02202
G3 X150.35 Y126.543 I-1.14 J-.342 E.05528
G1 X69.914 Y126.543 E2.90422
G1 X69.306 Y126.498 E.02202
M73 P11 R6
G3 X68.457 Y125.35 I.342 J-1.14 E.05528
G1 X68.457 Y116.857 E.30663
G1 X70.743 Y116.857 E.08253
G1 X70.743 Y123.571 E.24243
G1 X70.799 Y123.844 E.01004
G1 X70.944 Y124.056 E.00928
G1 X71.156 Y124.201 E.00928
G1 X71.306 Y124.232 E.00553
G1 X71.2 Y123.571 F9000
;TYPE:Outer wall
G1 F1800
G1 X71.267 Y123.733 E.00632
G1 X71.429 Y123.8 E.00632
G1 X148.571 Y123.8 E2.78532
G1 X148.733 Y123.733 E.00632
M73 P12 R6
G1 X148.8 Y123.571 E.00632
G1 X148.8 Y116.4 E.25893
G1 X152 Y116.4 E.11554
G1 X152 Y125.266 E.32013
G1 X151.943 Y125.814 E.01986
G1 X151.784 Y126.199 E.01506
G1 X151.53 Y126.53 E.01506
G1 X151.199 Y126.784 E.01506
G1 X150.814 Y126.943 E.01506
G1 X150.379 Y127 E.01581
G1 X69.734 Y127 E2.9118
G1 X69.186 Y126.943 E.01986
G1 X68.801 Y126.784 E.01506
G1 X68.47 Y126.53 E.01506
G1 X68.216 Y126.199 E.01506
G1 X68.057 Y125.814 E.01506
G1 X68 Y125.379 E.01581
G1 X68 Y116.4 E.32421
G1 X71.2 Y116.4 E.11554
G1 X71.2 Y123.531 E.25749
G1 E-1.2 F2400
;WIPE_START
M73 P13 R6
G1 F9000
G1 X71.267 Y123.733
G1 X71.429 Y123.8
G1 X73.041 Y123.8
;WIPE_END
G1 X76.847 Y123.515 Z.4
G1 X151.406 Y117.924 Z.4
G1 Z.2
G1 E1.2 F1800
;TYPE:Bottom surface
;WIDTH:0.502799
G1 F4800
G1 X150.682 Y117.2 E.03721
G1 X150.031 Y117.2 E.02363
G1 X151.2 Y118.369 E.06005
G1 X151.2 Y119.019 E.02363
G1 X149.6 Y117.419 E.08221
G1 X149.6 Y118.069 E.02363
G1 X151.2 Y119.67 E.08221
G1 X151.2 Y120.32 E.02363
G1 X149.6 Y118.72 E.08221
G1 X149.6 Y119.37 E.02363
G1 X151.2 Y120.97 E.08221
G1 X151.2 Y121.621 E.02363
G1 X149.6 Y120.02 E.08221
G1 X149.6 Y120.671 E.02363
G1 X151.2 Y122.271 E.08221
G1 X151.2 Y122.921 E.02363
G1 X149.6 Y121.321 E.08221
G1 X149.6 Y121.971 E.02363
G1 X151.2 Y123.572 E.08221
G1 X151.2 Y124.222 E.02363
G1 X149.6 Y122.622 E.08221
G1 X149.6 Y123.272 E.02363
G1 X151.2 Y124.872 E.08221
G3 X151.177 Y125.5 I-2.407 J.227 E.02288
G1 X149.549 Y123.871 E.08368
G1 X149.515 Y123.984 E.00428
G1 X149.311 Y124.284 E.01317
G1 X150.971 Y125.944 E.08528
G1 X150.959 Y125.959 E.0007
G3 X150.548 Y126.171 I-.591 J-.641 E.01702
G1 X148.913 Y124.536 E.084
G3 X148.326 Y124.6 I-.451 J-1.424 E.02158
G1 X149.926 Y126.2 E.08221
G1 X149.276 Y126.2 E.02363
G1 X147.676 Y124.6 E.08221
G1 X147.025 Y124.6 E.02363
G1 X148.626 Y126.2 E.08221
G1 X147.975 Y126.2 E.02363
G1 X146.375 Y124.6 E.08221
G1 X145.725 Y124.6 E.02363
G1 X147.325 Y126.2 E.08221
G1 X146.675 Y126.2 E.02363
G1 X145.074 Y124.6 E.08221
G1 X144.424 Y124.6 E.02363
G1 X146.024 Y126.2 E.08221
G1 X145.374 Y126.2 E.02363
G1 X143.774 Y124.6 E.08221
G1 X143.123 Y124.6 E.02363
G1 X144.723 Y126.2 E.08221
G1 X144.073 Y126.2 E.02363
G1 X142.473 Y124.6 E.08221
G1 X141.822 Y124.6 E.02363
G1 X143.423 Y126.2 E.08221
G1 X142.772 Y126.2 E.02363
G1 X141.172 Y124.6 E.08221
G1 X140.522 Y124.6 E.02363
G1 X142.122 Y126.2 E.08221
M73 P14 R6
G1 X141.472 Y126.2 E.02363
G1 X139.871 Y124.6 E.08221
