; generated by png_microfluidic_slicer.py
; WARNING: experimental glass-slide printing G-code
M140 S0
M104 S205
G90
M83
G28
M109 S205
G0 Z8.000 F3000
G92 E0
G1 E5.0000 F180
G92 E0
G0 Z8.000 F3000
G0 X133.875 Y126.167 F3000
G0 Z0.180 F600
G92 E0
G1 X125.875 Y118.167 E0.28575 F900
G1 X125.875 Y118.167 E0.28575 F900
G1 X126.042 Y118.083 E0.29046 F900
G1 X126.167 Y117.875 E0.29659 F900
G1 X126.167 Y102.042 E0.69649 F900
G1 X125.917 Y101.792 E0.70542 F900
G1 X125.875 Y101.750 E0.70691 F900
G1 X94.208 Y101.750 E1.50671 F900
G1 X94.042 Y101.833 E1.51142 F900
G1 X93.917 Y102.042 E1.51756 F900
G1 X93.917 Y117.875 E1.91746 F900
G1 X94.000 Y118.042 E1.92216 F900
G1 X94.208 Y118.167 E1.92830 F900
G1 X125.875 Y118.167 E2.72810 F900
G1 E-0.7000 F1200
G0 Z8.000 F3000
M104 S0
M140 S0
M84
